images/SaTT.svg

<svg height="250" viewBox="0 0 250 250" width="250" xmlns="http://www.w3.org/2000/svg"><g fill="#14142a"><path d="m72.066406 96.164062h-.511718c10.492187-20.625 31.917968-34.757812 56.644531-34.757812 15.949219 0 30.523437 5.878906 41.675781 15.585938h25.707031c-14.988281-21.035157-39.585937-34.753907-67.382812-34.753907-42.421875 0-77.378907 31.945313-82.128907 73.097657l53.375-.003907v19.164063h-53.382812l.019531.148437c.777344 6.613281 2.332031 12.980469 4.570313 19.023438h48.785156v48.789062c6.082031 2.253907 12.507812 3.816407 19.167969 4.585938v-53.371094h19.164062v53.378906c6.664063-.773437 13.085938-2.332031 19.167969-4.589843v-48.792969h48.789062c3.320313-8.953125 5.136719-18.640625 5.136719-28.753907 0-10.109374-1.816406-19.796874-5.136719-28.75zm65.710938 38.335938h-19.167969v-19.164062h19.167969zm53.207031 0h-34.039063v-19.164062h34.039063c.472656 3.125.71875 6.324218.71875 9.585937 0 3.253906-.246094 6.453125-.71875 9.578125zm0 0"/><path d="m128.128906 3.703125c-66.945312 0-121.210937 54.269531-121.210937 121.210937 0 66.941407 54.265625 121.214844 121.210937 121.214844 66.945313 0 121.210938-54.273437 121.210938-121.214844 0-66.941406-54.265625-121.210937-121.210938-121.210937zm0 223.222656c-56.339844 0-102.011718-45.671875-102.011718-102.011719 0-56.339843 45.671874-102.011718 102.011718-102.011718s102.011719 45.671875 102.011719 102.011718c0 56.339844-45.671875 102.011719-102.011719 102.011719zm0 0"/></g></svg>

<svg xmlns="http://www.w3.org/2000/svg" xmlns:xlink="http://www.w3.org/1999/xlink" width="250px" height="250px" viewBox="0 0 250 250" version="1.1">
<g id="surface1">
<path style=" stroke:none;fill-rule:nonzero;fill:rgb(7.843138%,7.843138%,16.470589%);fill-opacity:1;" d="M 72.066406 96.164062 L 71.554688 96.164062 C 82.046875 75.539062 103.472656 61.40625 128.199219 61.40625 C 144.148438 61.40625 158.722656 67.285156 169.875 76.992188 L 195.582031 76.992188 C 180.59375 55.957031 155.996094 42.238281 128.199219 42.238281 C 85.777344 42.238281 50.820312 74.183594 46.070312 115.335938 L 99.445312 115.332031 L 99.445312 134.496094 L 46.0625 134.496094 L 46.082031 134.644531 C 46.859375 141.257812 48.414062 147.625 50.652344 153.667969 L 99.4375 153.667969 L 99.4375 202.457031 C 105.519531 204.710938 111.945312 206.273438 118.605469 207.042969 L 118.605469 153.671875 L 137.769531 153.671875 L 137.769531 207.050781 C 144.433594 206.277344 150.855469 204.71875 156.9375 202.460938 L 156.9375 153.667969 L 205.726562 153.667969 C 209.046875 144.714844 210.863281 135.027344 210.863281 124.914062 C 210.863281 114.804688 209.046875 105.117188 205.726562 96.164062 Z M 137.777344 134.5 L 118.609375 134.5 L 118.609375 115.335938 L 137.777344 115.335938 Z M 190.984375 134.5 L 156.945312 134.5 L 156.945312 115.335938 L 190.984375 115.335938 C 191.457031 118.460938 191.703125 121.660156 191.703125 124.921875 C 191.703125 128.175781 191.457031 131.375 190.984375 134.5 Z M 190.984375 134.5 "/>
<path style=" stroke:none;fill-rule:nonzero;fill:rgb(7.843138%,7.843138%,16.470589%);fill-opacity:1;" d="M 128.128906 3.703125 C 61.183594 3.703125 6.917969 57.972656 6.917969 124.914062 C 6.917969 191.855469 61.183594 246.128906 128.128906 246.128906 C 195.074219 246.128906 249.339844 191.855469 249.339844 124.914062 C 249.339844 57.972656 195.074219 3.703125 128.128906 3.703125 Z M 128.128906 226.925781 C 71.789062 226.925781 26.117188 181.253906 26.117188 124.914062 C 26.117188 68.574219 71.789062 22.902344 128.128906 22.902344 C 184.46875 22.902344 230.140625 68.574219 230.140625 124.914062 C 230.140625 181.253906 184.46875 226.925781 128.128906 226.925781 Z M 128.128906 226.925781 "/>
</g>
</svg>
